X: 27717
T: Morning Dew, The
R: reel
M: 4/4
K: Edorian
|:E3B2AFD|E3B AFDF|E3B2AFA|BcdB AFDF:|
|:B2gB fBeB|gBeB AFDF|1 B2gB fBeB|BcdB AFDF:|2 (3Bcd (3efg fdec|d2dA BAFD||
|:B2GB FBEB|B2GB AFDF|1 B2GB FBEB|BcdB AFDF:|2 (3Bcd (3efg fdec|d2dA BAFD||
|:BAGF EFGA|B2GB A2FA|BAGF EFGA|BcdB AFDF:|

